frontend/public/icons/home-sale.svg

<svg width="24" height="24" viewBox="0 0 24 24" fill="none" xmlns="http://www.w3.org/2000/svg">
<path d="M14 9.84631C13 8.92323 10.3333 8.61555 10.3333 10.4617C10.3333 12.3079 14 11.3848 14 13.2309C14 15.0771 11 15.0771 10 13.8463" stroke="black" stroke-width="1.5" stroke-linecap="round" stroke-linejoin="round"/>
<path d="M12 14.7021V16" stroke="black" stroke-width="1.5" stroke-linecap="round" stroke-linejoin="round"/>
<path d="M12 9.11306V8" stroke="black" stroke-width="1.5" stroke-linecap="round" stroke-linejoin="round"/>
<path d="M2 8L11.7317 3.13416C11.9006 3.04971 12.0994 3.0497 12.2683 3.13416L22 8" stroke="black" stroke-width="1.5" stroke-linecap="round" stroke-linejoin="round"/>
<path d="M20 11V19C20 20.1046 19.1046 21 18 21H6C4.89543 21 4 20.1046 4 19V11" stroke="black" stroke-width="1.5" stroke-linecap="round" stroke-linejoin="round"/>
</svg>

<svg xmlns="http://www.w3.org/2000/svg" width="24" height="24" fill="none" viewBox="0 0 24 24">
  <path stroke="#131927" stroke-linecap="round" stroke-linejoin="round" stroke-width="1.5" d="M14 9.846c-1-.923-3.667-1.23-3.667.616S14 11.385 14 13.23s-3 1.846-4 .615m2 .857V16m0-6.887V8M2 8l9.732-4.866a.6.6 0 0 1 .536 0L22 8"/>
  <path stroke="#131927" stroke-linecap="round" stroke-linejoin="round" stroke-width="1.5" d="M20 11v8a2 2 0 0 1-2 2H6a2 2 0 0 1-2-2v-8"/>
</svg>
